X:3598
T:Lead the Knave
O:england
R:reel
B:Joyce collection #21 (Johnny from Gandsey), in Am
D:Arty McGlynn & Nollaig Casey: Lead the Knave
M:C|
K:Dm
A,D~D2 DFED|CA,G,A, ~C3G,|A,D~D2 FDCA,|CDFG ~A3d|
dcAd dcAG|FDCD ~F3G|ABAG GFDC|1 A,G,A,C D3C:|2 A,G,A,C D3d||
|:dcAd dcAd|dcA=B ~c3d|dcAG FDCA,|CDFG ~A3d|
dcAd dcAG|FDCD ~F3G|ABAG GFDC|1 A,G,A,C D3d:|2 A,G,A,C D3C||
